resources/lib/oojs-ui/themes/mediawiki/images/icons/newWindow-rtl.svg

<?xml version="1.0" encoding="utf-8"?>
<svg xmlns="http://www.w3.org/2000/svg" width="24" height="24" viewBox="0 0 24 24">
    <g id="g462">
        <path d="M12 5l-2.5 2.5 3.5 3.5c1.2 1.2 1.2 2.8 0 4l-5.5-5.5-2.5 2.5v-7h7zm-5 12h9c.6 0 1-.4 1-1v-9h-3l2-2h3v11c0 1.7-1.3 3-3 3h-11v-3l2-2v3z" id="path464"/>
    </g>
</svg>

<?xml version="1.0" encoding="utf-8"?>
<svg xmlns="http://www.w3.org/2000/svg" width="24" height="24" viewBox="0 0 24 24">
    <g id="g462">
        <path d="M12 5L9.5 7.5 13 11c1.2 1.2 1.2 2.8 0 4L7.5 9.5 5 12V5h7zM7 17h9c.6 0 1-.4 1-1V7h-3l2-2h3v11c0 1.7-1.3 3-3 3H5v-3l2-2v3z" id="path464"/>
    </g>
</svg>
